X: 33976
T: Redwood
R: reel
M: 4/4
K: Emajor
B ef|:g3 g2 f eg|fege fede|c3 c2 B GB|F3 F2 B ef|
g3 g2 f eg|fege fede|c3 c2 B eg|1 fedf eB ef:|2 fedf efga||
bgg/g/g agfa|gede ceBe|A3 B cABc|dcde fega|
bgg/g/g agfa|gede ceBe|c3 c2 c eg|fedf efga
bgg/g/g agfa|gede ceBe|A3 G ABcA|BcdB cdec|
g3 g2 f eg|fege fede|c3 c2 c eg|fedf e4|

